X: 36054
T: Scartaglen, The
R: reel
M: 4/4
K: Dmajor
D2ED FAdB|~A2FD EA,~A,2|~D2ED FAdB|AFDF EFDE|
D2ED FAdB|~A2FD EDB,D|~D2ED FAdB|AFDF ~E2D2||
Adfd edfd|Adfd eB~B2|Adfd edfd|AFDE FE{F/}EF|
Adfd edfd|Adfd eB~B2|~g3e ~f3e|dBAF ~E3F||D4||

